jsapp/svg-icons/qt-video-lock.svg

<svg height="642" viewBox="0 0 642 642" width="642" xmlns="http://www.w3.org/2000/svg"><path d="m352 513h-271.2c-26.399211 0-47.8-21.400789-47.8-47.8v-288.4c0-26.399211 21.400789-47.8 47.8-47.8h288.4c12.677348 0 24.835465 5.036057 33.799704 14.000296s14.000296 21.122356 14.000296 33.799704v189.68c-16.13926 21.527395-24.849592 47.714544-24.82 74.62v5.71c-24.38106 10.616145-40.156457 34.667932-40.18 61.26zm165-196.71c35.004491-.012302 68.397551 14.709682 92 40.56v-164.35c0-25.4-29.1-40.4-50.4-25.8l-109.6 75.6v94.19c20.217952-13.207218 43.850561-20.227493 68-20.2zm0 124.64h-.07c-.051328.046307-.09518.100279-.13.16v.2h.37v-.18c-.031592-.08195-.092053-.149524-.17-.19zm125 67.15v107.13c0 14.795708-11.994292 26.79-26.79 26.79h-196.42c-14.795708 0-26.79-11.994292-26.79-26.79v-107.14c0-14.795708 11.994292-26.79 26.79-26.79h13.39v-40.17c0-46.844792 37.975208-84.82 84.82-84.82s84.82 37.975208 84.82 84.82v40.18h13.39c14.791804 0 26.784479 11.988197 26.79 26.78zm-97.91 52c0-14.746003-11.953997-26.7-26.7-26.7s-26.7 11.953997-26.7 26.7 11.953997 26.7 26.7 26.7c14.734295 0 26.683445-11.935714 26.7-26.67zm13.09-119c0-22.190801-17.989199-40.18-40.18-40.18s-40.18 17.989199-40.18 40.18v40.18h80.36z"/></svg>

<svg id="Layer_1" data-name="Layer 1" xmlns="http://www.w3.org/2000/svg" viewBox="0 0 642 642"><path d="M352,513H80.8A47.8,47.8,0,0,1,33,465.2V176.8A47.8,47.8,0,0,1,80.8,129H369.2A47.8,47.8,0,0,1,417,176.8V366.48a124.17,124.17,0,0,0-24.82,74.62v5.71A66.88,66.88,0,0,0,352,508.07ZM517,316.29a124.52,124.52,0,0,1,92,40.56V192.5c0-25.4-29.1-40.4-50.4-25.8L449,242.3v94.19A124.08,124.08,0,0,1,517,316.29Zm0,124.64h-.07a.67.67,0,0,0-.13.16v.2h.37v-.18A.36.36,0,0,0,517,440.92Zm125,67.15V615.21A26.79,26.79,0,0,1,615.21,642H418.79A26.79,26.79,0,0,1,392,615.21V508.07a26.79,26.79,0,0,1,26.79-26.79h13.39V441.11a84.82,84.82,0,0,1,169.64,0v40.18h13.39A26.79,26.79,0,0,1,642,508.07Zm-97.91,52a26.7,26.7,0,1,0-26.7,26.7A26.7,26.7,0,0,0,544.09,560.11Zm13.09-119a40.18,40.18,0,1,0-80.36,0v40.18h80.36Z"/></svg>
